src/assets/icons/barcode.svg

<svg width="14" height="14" viewBox="0 0 14 14" fill="none" xmlns="http://www.w3.org/2000/svg">
<g id="barcode">
<g clip-path="url(#clip0_295_4741)">
<path id="Vector" fill-rule="evenodd" clip-rule="evenodd" d="M0.777778 0.777832C0.348223 0.777832 0 1.12606 0 1.55561V12.4445C0 12.8741 0.348223 13.2223 0.777778 13.2223C1.20733 13.2223 1.55556 12.8741 1.55556 12.4445V1.55561C1.55556 1.12606 1.20733 0.777832 0.777778 0.777832ZM3.11111 0.777832C2.89633 0.777832 2.72222 0.951944 2.72222 1.16672V12.8334C2.72222 13.0482 2.89633 13.2223 3.11111 13.2223C3.32589 13.2223 3.5 13.0482 3.5 12.8334V1.16672C3.5 0.951944 3.32589 0.777832 3.11111 0.777832ZM5.05556 0.777832C4.84078 0.777832 4.66667 0.951944 4.66667 1.16672V12.8334C4.66667 13.0482 4.84078 13.2223 5.05556 13.2223C5.27033 13.2223 5.44444 13.0482 5.44444 12.8334V1.16672C5.44444 0.951944 5.27033 0.777832 5.05556 0.777832ZM12.8333 1.36117C12.8333 1.039 13.0945 0.777832 13.4167 0.777832C13.7388 0.777832 14 1.039 14 1.36117V12.6389C14 12.9611 13.7388 13.2223 13.4167 13.2223C13.0945 13.2223 12.8333 12.9611 12.8333 12.6389V1.36117ZM7.38889 1.55561C7.38889 1.12606 7.73711 0.777832 8.16667 0.777832C8.59622 0.777832 8.94444 1.12606 8.94444 1.55561V12.4445C8.94444 12.8741 8.59622 13.2223 8.16667 13.2223C7.73711 13.2223 7.38889 12.8741 7.38889 12.4445V1.55561ZM10.8889 0.777832C10.4593 0.777832 10.1111 1.12606 10.1111 1.55561V12.4445C10.1111 12.8741 10.4593 13.2223 10.8889 13.2223C11.3184 13.2223 11.6667 12.8741 11.6667 12.4445V1.55561C11.6667 1.12606 11.3184 0.777832 10.8889 0.777832Z" fill="black"/>
</g>
</g>
<defs>
<clipPath id="clip0_295_4741">
<rect width="14" height="14" fill="white"/>
</clipPath>
</defs>
</svg>

<svg xmlns="http://www.w3.org/2000/svg" fill="none" viewBox="0 0 14 14"><g clip-path="url(#a)"><path fill="#000" fill-rule="evenodd" d="M.778.778A.78.78 0 0 0 0 1.556v10.889a.778.778 0 1 0 1.556 0V1.554A.78.78 0 0 0 .778.779m2.333 0a.39.39 0 0 0-.389.389v11.666a.389.389 0 1 0 .778 0V1.167a.39.39 0 0 0-.389-.39m1.945 0a.39.39 0 0 0-.39.389v11.666a.389.389 0 1 0 .778 0V1.167a.39.39 0 0 0-.388-.39m7.777.583a.583.583 0 0 1 1.167 0V12.64a.583.583 0 1 1-1.167 0zm-5.444.195a.778.778 0 0 1 1.555 0v10.889a.778.778 0 1 1-1.555 0zm3.5-.778a.78.78 0 0 0-.778.778v10.889a.778.778 0 1 0 1.556 0V1.554a.78.78 0 0 0-.778-.777" clip-rule="evenodd"/></g><defs><clipPath id="a"><path fill="#fff" d="M0 0h14v14H0z"/></clipPath></defs></svg>
